images/appc.svg

<svg height="250" viewBox="0 0 250 250" width="250" xmlns="http://www.w3.org/2000/svg" xmlns:xlink="http://www.w3.org/1999/xlink"><linearGradient id="a" gradientUnits="userSpaceOnUse" x1="52.06302661595" x2="221.64632140217" y1="46.00739385" y2="229.67774208189"><stop offset="0" stop-color="#fc8f55"/><stop offset=".44" stop-color="#fe7a6a"/><stop offset="1" stop-color="#fe687c"/></linearGradient><path d="m249.972656 124.988281c0 69.027344-55.957031 124.984375-124.984375 124.984375-69.03125 0-124.988281-55.957031-124.988281-124.984375 0-69.03125 55.957031-124.988281 124.988281-124.988281 69.027344 0 124.984375 55.957031 124.984375 124.988281zm0 0" fill="url(#a)"/><path d="m92.529576 48.710433c0 24.200699-19.618444 43.819143-43.819143 43.819143-24.202221 0-43.820665-19.618444-43.820665-43.819143 0-24.202221 19.618444-43.820665 43.820665-43.820665 24.200699 0 43.819143 19.618444 43.819143 43.820665zm0 0" fill="none" stroke="#fff" stroke-miterlimit="10" stroke-width="3" transform="scale(2.565945)"/><path d="m108.746094 138.355469 16.625-50.601563 16.9375 50.601563zm70.484375 31.996093-13.753907-37.769531h8.210938c3.273438-.027343 5.914062-2.679687 5.929688-5.953125 0-3.117187-2.527344-5.644531-5.644532-5.644531h-12.832031l-2.050781-5.875h14.597656c3.203125 0 5.820312-2.550781 5.902344-5.75.007812-1.574219-.613282-3.085937-1.726563-4.199219-1.113281-1.113281-2.625-1.734375-4.199219-1.726562h-18.964843l-10.261719-28.226563c-1.535156-4.03125-4.066406-7.609375-7.363281-10.390625-3.257813-2.679687-7.386719-4.066406-11.597657-3.902344-4.226562-.132812-8.359374 1.25-11.652343 3.902344-3.296875 2.785156-5.839844 6.359375-7.390625 10.390625l-10.75 28.484375h-18.859375c-3.136719 0-5.683594 2.53125-5.695313 5.667969 0 3.261719 2.640625 5.902344 5.902344 5.902344h14.316406l-2.207031 5.722656h-12.828125c-3.148438 0-5.699219 2.550781-5.699219 5.695313 0 3.222656 2.605469 5.835937 5.828125 5.851562h8.234375l-13.984375 37.820312c-.859375 2.132813-1.335937 4.402344-1.410156 6.699219.144531 3.222657 1.542969 6.261719 3.898438 8.46875 2.59375 2.242188 5.914062 3.464844 9.339843 3.4375 5.9375.324219 11.289063-3.550781 12.832031-9.289062l5.414063-16.140625h49.804687l5.414063 16.523437c1.742187 5.539063 7.035156 9.179688 12.828125 8.828125 2.15625.042969 4.285156-.496094 6.160156-1.566406 1.625-1.207031 3.066406-2.640625 4.285156-4.257812 1.058594-1.820313 1.601563-3.898438 1.5625-6.003907-.339843-2.242187-.871093-4.445312-1.589843-6.59375zm0 0" fill="#fefefe"/></svg>

<svg xmlns="http://www.w3.org/2000/svg" xmlns:xlink="http://www.w3.org/1999/xlink" width="250px" height="250px" viewBox="0 0 250 250" version="1.1">
<defs>
<linearGradient id="linear0" gradientUnits="userSpaceOnUse" x1="20.290001" y1="17.93" x2="86.379997" y2="89.510002" gradientTransform="matrix(2.565945,0,0,2.565945,0,0)">
<stop offset="0" style="stop-color:rgb(98.823529%,56.078434%,33.333334%);stop-opacity:1;"/>
<stop offset="0.44" style="stop-color:rgb(99.607843%,47.843137%,41.568628%);stop-opacity:1;"/>
<stop offset="1" style="stop-color:rgb(99.607843%,40.784314%,48.627451%);stop-opacity:1;"/>
</linearGradient>
</defs>
<g id="surface1">
<path style=" stroke:none;fill-rule:nonzero;fill:url(#linear0);" d="M 249.972656 124.988281 C 249.972656 194.015625 194.015625 249.972656 124.988281 249.972656 C 55.957031 249.972656 0 194.015625 0 124.988281 C 0 55.957031 55.957031 0 124.988281 0 C 194.015625 0 249.972656 55.957031 249.972656 124.988281 Z M 249.972656 124.988281 "/>
<path style="fill:none;stroke-width:3;stroke-linecap:butt;stroke-linejoin:miter;stroke:rgb(100%,100%,100%);stroke-opacity:1;stroke-miterlimit:10;" d="M 92.529576 48.710433 C 92.529576 72.911132 72.911132 92.529576 48.710433 92.529576 C 24.508212 92.529576 4.889768 72.911132 4.889768 48.710433 C 4.889768 24.508212 24.508212 4.889768 48.710433 4.889768 C 72.911132 4.889768 92.529576 24.508212 92.529576 48.710433 Z M 92.529576 48.710433 " transform="matrix(2.565945,0,0,2.565945,0,0)"/>
<path style=" stroke:none;fill-rule:nonzero;fill:rgb(99.607843%,99.607843%,99.607843%);fill-opacity:1;" d="M 108.746094 138.355469 L 125.371094 87.753906 L 142.308594 138.355469 Z M 179.230469 170.351562 L 165.476562 132.582031 L 173.6875 132.582031 C 176.960938 132.554688 179.601562 129.902344 179.617188 126.628906 C 179.617188 123.511719 177.089844 120.984375 173.972656 120.984375 L 161.140625 120.984375 L 159.089844 115.109375 L 173.6875 115.109375 C 176.890625 115.109375 179.507812 112.558594 179.589844 109.359375 C 179.597656 107.785156 178.976562 106.273438 177.863281 105.160156 C 176.75 104.046875 175.238281 103.425781 173.664062 103.433594 L 154.699219 103.433594 L 144.4375 75.207031 C 142.902344 71.175781 140.371094 67.597656 137.074219 64.816406 C 133.816406 62.136719 129.6875 60.75 125.476562 60.914062 C 121.25 60.78125 117.117188 62.164062 113.824219 64.816406 C 110.527344 67.601562 107.984375 71.175781 106.433594 75.207031 L 95.683594 103.691406 L 76.824219 103.691406 C 73.6875 103.691406 71.140625 106.222656 71.128906 109.359375 C 71.128906 112.621094 73.769531 115.261719 77.03125 115.261719 L 91.347656 115.261719 L 89.140625 120.984375 L 76.3125 120.984375 C 73.164062 120.984375 70.613281 123.535156 70.613281 126.679688 C 70.613281 129.902344 73.21875 132.515625 76.441406 132.53125 L 84.675781 132.53125 L 70.691406 170.351562 C 69.832031 172.484375 69.355469 174.753906 69.28125 177.050781 C 69.425781 180.273438 70.824219 183.3125 73.179688 185.519531 C 75.773438 187.761719 79.09375 188.984375 82.519531 188.957031 C 88.457031 189.28125 93.808594 185.40625 95.351562 179.667969 L 100.765625 163.527344 L 150.570312 163.527344 L 155.984375 180.050781 C 157.726562 185.589844 163.019531 189.230469 168.8125 188.878906 C 170.96875 188.921875 173.097656 188.382812 174.972656 187.3125 C 176.597656 186.105469 178.039062 184.671875 179.257812 183.054688 C 180.316406 181.234375 180.859375 179.15625 180.820312 177.050781 C 180.480469 174.808594 179.949219 172.605469 179.230469 170.457031 Z M 179.230469 170.351562 "/>
</g>
</svg>
